X:11
T: Es waren einmal drei Reiter gefangn
N: L0065
O: Europa, Mitteleuropa, Deutschland
N: ab 1818
R: Lied
M: 4/4
L: 1/8
K: Bb
F2 | B2B2B2d2 | B2F2D2
F2 | d3BdccA | B4z2
Bc | d2d2edcB | c3dc2
FA | c2c2dcBA | B2F2D2
F2 | d3BdccA | B4z2

